!!!OTL: 772. Der Schnitter Tod.
!!!COM: Luise Reichardt
!!!ODT: 1819
!!!ARE: Europa, Mitteleuropa, Deutschland
!!!SCT: B0772
!!!TXL: @@DE
!!!YEM: Copyright 1995, estate of Helmut Schaffrath.
**kern	**text
*ICvox	*
*Ivox	*
*clefG2	*
*M4/4	*
*met(c)	*
*k[f#]	*
*G:	*
!LO:TX:a:t=Gemächlich.	!
{8d	Es
=1	=1
4g	iſt
4g	ein
4f#	Schnitter,
4f#	.
=2	=2
4e	der
4e	heißt
4.d}	Tod,
{8d	der
=3	=3
4.g	hat
8g	Ge-
4f#	-walt
4g	vom
=4	=4
4a	höch-
4a	-ſten
4b	Gott;
8r}	.
{8b	heut'
=5	=5
4b	wetʒt
8a	er
8g	das
4a	Meſ-
8d	-ſer,
8d	es
=6	=6
4b	ſchneidt
8a	ſchon
8g	viel
4a	beſ-
8d}	-ſer,
{8d	bald
=7	=7
4b	wie
8a	der
8b	drein
4cc	ſchnei-
8a	-den,
8a	wir
=8	=8
4a	müſ-
8g	-ſen's
8a	nur
4b	lei-
8g	-den.
8r}	.
=9	=9
{4.dd	Hü-
8b	-te
4g	dich,
4g	ſchön's
=10	=10
4a	Blümelein!
4a	.
2b}	.
=11	=11
{(4dd	Hü-
8gg)	.
8dd	-te
4b	dich,
4dd	ſchön's
=12	=12
8ddqq	.
4cc	Blümelein!
4a	.
4g;	.
8r}	.
==	==
!!!AGN: Trost - Lied, Tod, religioes
!!!GTL: Religioese Lieder
!!!ONB: ESAC (Essen Associative Code) Database: BOEHME
!!!AMT: simple quadruple
!!!AIN: vox
!!!EED: Helmut Schaffrath
!!!EEV: 1.0
!!Mel. v. Luise Reichardt. 1819.
!!@@COMMENT:"Altes Volkslied, 1637 entſtanden (ſ. Liederhort III. S. 848 den Tert mit der alten Weiſe).
!!Auch Mendelsſohn u. A. haben das Lied ueu komponirt. Verbreitet iſt die Mel. von L. Reichardt."
!!@@END:
!!!URL-scan: https://archive.org/details/BoehmeVtLieder1895/page/n615/mode/2up
!!!ENC: Anna Maria Matuszewska
!!!EEV: 2024/19/07
*-	*-
